X:63
T:Ma petite veste rouge
R:Branle
C:trad.
A:Morvan
O:France
M:2/4
L:1/8
Q:1/4=110
K:G
d2|dedc|BAc2|cdcB|A2DG|FGAB|A2d>c|BABA|
GDDG|FGAB|A2d>c|BABA|G2||
W:
W:Ma petit' veste rouge
W:Al dur'ra-t-y toujours 
W:En la tournant  l'envers
W:J'en aurai pour mon hivre,
W:En la tournant  l'endret
W:J'en aurai pour mon t
W:
W:Ma petit' veste rouge
W:Al dur'ra-t-y toujours 
W:En la bordant d'coton blanc
W:J'en aurai pour mes dimanches,
W:En la bordant de velours
W:J'en aurai pour tous les jours.
